img/phone.svg

<svg width="16" height="16" viewBox="0 0 16 16" fill="none" xmlns="http://www.w3.org/2000/svg">
<path d="M16 8C16 6.94944 15.793 5.90918 15.391 4.93848C14.989 3.96797 14.3998 3.08594 13.6569 2.34317C12.914 1.60019 12.0321 1.01094 11.0614 0.608984C10.0909 0.206832 9.05056 0 8 0V1.6C8.84048 1.6 9.67272 1.76562 10.4492 2.08711C11.2257 2.40879 11.9312 2.88027 12.5255 3.47461C13.1198 4.06875 13.5912 4.77442 13.9128 5.55078C14.2345 6.32734 14.4 7.1596 14.4 8H16Z" fill="#E21C2A"/>
<path d="M0 6.4V2.4C0 1.9582 0.358176 1.6 0.8 1.6H4.8C5.24182 1.6 5.6 1.9582 5.6 2.4V5.6C5.6 6.0418 5.24182 6.4 4.8 6.4H3.2C3.2 9.93456 6.06538 12.8 9.6 12.8V11.2C9.6 10.7582 9.95816 10.4 10.4 10.4H13.6C14.0418 10.4 14.4 10.7582 14.4 11.2V15.2C14.4 15.6418 14.0418 16 13.6 16H9.6C4.29807 16 0 11.7019 0 6.4Z" fill="#E21C2A"/>
<path d="M12.4346 6.16309C12.6758 6.74552 12.8 7.36976 12.8 8H11.36C11.36 7.5588 11.2731 7.12184 11.1042 6.71424C10.9354 6.30645 10.6879 5.93614 10.3758 5.62422C10.0638 5.31211 9.69352 5.06465 9.28584 4.8957C8.87816 4.72695 8.4412 4.64004 8 4.64004V3.2C8.63032 3.2 9.25448 3.32422 9.83688 3.56543C10.4192 3.80664 10.9484 4.16016 11.3941 4.60586C11.8398 5.05156 12.1934 5.58066 12.4346 6.16309Z" fill="#E21C2A"/>
</svg>

<svg width="16" height="16" fill="none" xmlns="http://www.w3.org/2000/svg"><path d="M16 8a8.001 8.001 0 0 0-8-8v1.6A6.403 6.403 0 0 1 14.4 8H16ZM0 6.4v-4a.8.8 0 0 1 .8-.8h4a.8.8 0 0 1 .8.8v3.2a.8.8 0 0 1-.8.8H3.2a6.4 6.4 0 0 0 6.4 6.4v-1.6a.8.8 0 0 1 .8-.8h3.2a.8.8 0 0 1 .8.8v4a.8.8 0 0 1-.8.8h-4A9.6 9.6 0 0 1 0 6.4Z" fill="#E21C2A"/><path d="M12.435 6.163c.24.583.365 1.207.365 1.837h-1.44A3.359 3.359 0 0 0 8 4.64V3.2a4.8 4.8 0 0 1 4.435 2.963Z" fill="#E21C2A"/></svg>
